X: 17
T:Long Room (#197), The
M:9/8
L:1/8
S:Aird's Selections 1782-97
K:G
B|G2 G GBG Bcd|G2 G GBG AFD|G2 G GBG Bcd|e2 e fed g2:|
|:e/2f/2|g2 g gag fed|g2 g gbg afd|g2 g gag fed|efg afd g2:|
|:c|BGB BGB c2 d|BGB BGB AFD|BGB BGB c2 d|ege fed g2:||

